; generated by Slic3r 1.37.2 on 2017-12-12 at 21:11:05

; 

; external perimeters extrusion width = 0.45mm
; perimeters extrusion width = 0.45mm
; infill extrusion width = 0.45mm
; solid infill extrusion width = 0.45mm
; top infill extrusion width = 0.40mm
; support material extrusion width = 0.35mm
; first layer extrusion width = 0.42mm

M107
M115 U3.0.12 ; tell printer latest fw version
M83  ; extruder relative mode
M104 S270 ; set extruder temp
M140 S80 ; set bed temp
M190 S80 ; wait for bed temp
M109 S270 ; wait for extruder temp
G28 W ; home all without mesh bed level
G80 ; mesh bed leveling
G1 Y-3.0 F1000.0 ; go outside pritn area
G1 X60.0 E9.0  F1000.0 ; intro line
G1 X100.0 E12.5  F1000.0 ; intro line
; Filament gcode

G21 ; set units to millimeters
G90 ; use absolute coordinates
M83 ; use relative distances for extrusion
G1 E-0.80000 F2100.00000
G1 Z0.200 F7200.000
G1 X112.552 Y94.709 F7200.000
G1 E0.80000 F2100.00000
M204 S1000
G1 F2100
G1 X115.202 Y91.989 E0.11907
G1 X115.911 Y91.407 E0.02877
G1 X116.704 Y90.945 E0.02877
G1 X120.050 Y89.660 E0.11240
G1 X120.983 Y89.401 E0.03036
G1 X123.259 Y88.997 E0.07247
G1 X124.527 Y88.899 E0.03987
G1 X127.073 Y89.039 E0.07994
G1 X127.958 Y89.168 E0.02805
G1 X131.153 Y90.121 E0.10454
G1 X132.991 Y90.942 E0.06311
G1 X133.671 Y91.326 E0.02451
G1 X137.552 Y94.330 E0.15389
G1 X138.227 Y95.124 E0.03266
G1 X138.748 Y96.026 E0.03266
G1 X140.485 Y100.679 E0.15573
G1 X140.784 Y101.978 E0.04180
G1 X141.058 Y104.308 E0.07357
G1 X141.084 Y105.148 E0.02635
G1 X140.779 Y108.071 E0.09213
G1 X140.472 Y109.362 E0.04160
G1 X138.750 Y114.038 E0.15624
G1 X138.214 Y114.965 E0.03358
G1 X137.514 Y115.776 E0.03358
G1 X133.880 Y118.600 E0.14431
G1 X132.691 Y119.261 E0.04264
G1 X130.787 Y120.017 E0.06426
G1 X128.184 Y120.786 E0.08508
G1 X127.120 Y120.957 E0.03379
G1 X124.516 Y121.101 E0.08176
G1 X123.381 Y121.022 E0.03569
G1 X120.741 Y120.544 E0.08413
G1 X116.737 Y119.140 E0.13304
G1 X116.015 Y118.732 E0.02599
G1 X115.354 Y118.222 E0.02618
G1 X112.674 Y115.499 E0.11979
G1 X112.185 Y114.882 E0.02469
G1 X111.211 Y113.364 E0.05653
G1 X110.083 Y111.125 E0.07862
G1 X109.724 Y110.195 E0.03125
G1 X108.998 Y107.087 E0.10008
G1 X108.920 Y106.221 E0.02728
G1 X108.916 Y103.944 E0.07138
G1 X109.053 Y102.571 E0.04328
G1 X109.695 Y99.895 E0.08628
G1 X110.065 Y98.917 E0.03279
G1 X111.147 Y96.755 E0.07579
G1 X112.518 Y94.758 E0.07594
G1 X112.827 Y94.971 F7200.000
G1 F2100
G1 X115.466 Y92.258 E0.11867
G1 X116.135 Y91.711 E0.02709
G1 X116.883 Y91.278 E0.02709
G1 X120.182 Y90.013 E0.11079
G1 X121.064 Y89.769 E0.02870
G1 X123.324 Y89.369 E0.07194
G1 X124.526 Y89.276 E0.03782
G1 X127.047 Y89.415 E0.07916
G1 X127.891 Y89.539 E0.02675
G1 X131.010 Y90.470 E0.10205
G1 X133.460 Y91.638 E0.08511
G1 X137.288 Y94.599 E0.15175
G1 X137.925 Y95.350 E0.03085
G1 X138.414 Y96.203 E0.03085
G1 X140.131 Y100.807 E0.15406
G1 X140.411 Y102.029 E0.03931
G1 X140.683 Y104.342 E0.07302
G1 X140.707 Y105.148 E0.02528
G1 X140.407 Y108.010 E0.09023
G1 X140.120 Y109.225 E0.03913
G1 X138.416 Y113.863 E0.15492
G1 X137.914 Y114.735 E0.03157
G1 X137.254 Y115.503 E0.03175
G1 X133.664 Y118.290 E0.14250
G1 X132.545 Y118.913 E0.04014
G1 X130.667 Y119.660 E0.06339
G1 X128.100 Y120.419 E0.08392
G1 X127.083 Y120.582 E0.03230
G1 X124.517 Y120.724 E0.08057
G1 X123.437 Y120.649 E0.03395
G1 X120.831 Y120.177 E0.08303
G1 X116.891 Y118.795 E0.13091
G1 X116.209 Y118.409 E0.02459
G1 X115.595 Y117.931 E0.02441
G1 X112.952 Y115.245 E0.11814
G1 X112.494 Y114.665 E0.02315
G1 X111.537 Y113.175 E0.05554
G1 X110.425 Y110.966 E0.07755
G1 X110.081 Y110.073 E0.03001
G1 X109.372 Y107.036 E0.09776
G1 X109.297 Y106.211 E0.02598
G1 X109.293 Y103.944 E0.07108
G1 X109.425 Y102.634 E0.04128
G1 X110.059 Y99.994 E0.08512
G1 X110.409 Y99.071 E0.03095
G1 X111.485 Y96.922 E0.07535
G1 X112.793 Y95.021 E0.07237
G1 F5760
G1 X114.319 Y93.444 E-0.76000
G1 E-0.04000 F2100.00000
G1 X112.366 Y98.658 F7200.000
G1 E0.80000 F2100.00000
G1 F2100
G1 X112.426 Y98.319 E0.01080
G1 X112.670 Y97.695 E0.02101
G1 X112.924 Y97.276 E0.01534
G1 X112.963 Y97.136 E0.00457
G1 X113.181 Y96.627 E0.01736
G1 X113.678 Y95.905 E0.02747
G1 X114.267 Y95.323 E0.02599
G1 X114.728 Y95.009 E0.01747
G1 X115.470 Y94.291 E0.03236
G1 X115.554 Y94.119 E0.00603
G1 X115.837 Y93.721 E0.01531
G1 X116.486 Y93.053 E0.02918
G1 X117.224 Y92.558 E0.02787
G1 X117.951 Y92.278 E0.02445
G1 X118.698 Y92.197 E0.02355
G1 X119.248 Y92.045 E0.01788
G1 X119.394 Y92.027 E0.00462
G1 X119.584 Y91.866 E0.00782
G1 X120.179 Y91.524 E0.02152
G1 X121.300 Y91.156 E0.03697
G1 X122.306 Y91.070 E0.03168
G1 X122.518 Y91.093 E0.00667
G1 X122.684 Y91.010 E0.00583
G1 X123.511 Y90.766 E0.02703
G1 X125.181 Y90.730 E0.05237
G1 X125.806 Y90.904 E0.02034
G1 X126.052 Y90.844 E0.00796
G1 X126.737 Y90.806 E0.02152
G1 X127.904 Y90.979 E0.03697
G1 X128.841 Y91.355 E0.03166
G1 X129.021 Y91.470 E0.00669
G1 X129.216 Y91.470 E0.00612
G1 X130.023 Y91.612 E0.02570
G1 X131.162 Y92.093 E0.03876
G1 X131.349 Y92.213 E0.00699
G1 X131.615 Y92.247 E0.00840
G1 X132.293 Y92.470 E0.02239
G1 X133.206 Y93.043 E0.03380
G1 X133.804 Y93.640 E0.02649
G1 X133.971 Y93.875 E0.00902
G1 X134.131 Y94.020 E0.00679
G1 X134.573 Y94.553 E0.02171
G1 X135.172 Y94.723 E0.01954
G1 X136.008 Y95.178 E0.02982
G1 X136.792 Y95.919 E0.03384
G1 X137.329 Y96.742 E0.03080
G1 X137.599 Y97.519 E0.02579
G1 X137.655 Y98.364 E0.02654
G1 X138.031 Y99.141 E0.02708
G1 X138.206 Y99.772 E0.02052
G1 X138.229 Y100.152 E0.01194
G1 X138.360 Y100.329 E0.00691
G1 X138.799 Y101.256 E0.03215
G1 X139.028 Y102.292 E0.03327
G1 X139.043 Y103.091 E0.02506
G1 X138.994 Y103.361 E0.00861
G1 X139.103 Y103.609 E0.00849
G1 X139.259 Y104.273 E0.02137
G1 X139.290 Y105.452 E0.03700
G1 X139.077 Y106.458 E0.03223
G1 X138.996 Y106.647 E0.00644
G1 X139.043 Y106.900 E0.00807
G1 X139.041 Y107.586 E0.02151
G1 X138.800 Y108.741 E0.03697
G1 X138.370 Y109.655 E0.03168
G1 X138.235 Y109.839 E0.00716
G1 X138.218 Y110.146 E0.00965
G1 X138.054 Y110.795 E0.02098
G1 X137.671 Y111.605 E0.02809
G1 X137.659 Y112.159 E0.01739
G1 X137.529 Y112.815 E0.02096
G1 X137.008 Y113.875 E0.03702
G1 X136.193 Y114.752 E0.03755
G1 X134.938 Y115.430 E0.04473
G1 X134.503 Y115.527 E0.01396
G1 X134.216 Y115.891 E0.01455
G1 X134.090 Y116.015 E0.00552
G1 X133.812 Y116.414 E0.01526
G1 X133.177 Y117.057 E0.02835
G1 X132.029 Y117.703 E0.04129
G1 X131.389 Y117.862 E0.02069
G1 X131.199 Y117.879 E0.00597
G1 X131.040 Y117.975 E0.00584
G1 X129.927 Y118.415 E0.03752
G1 X129.306 Y118.524 E0.01977
G1 X129.030 Y118.523 E0.00865
G1 X128.841 Y118.645 E0.00706
G1 X127.904 Y119.021 E0.03166
G1 X126.737 Y119.194 E0.03696
G1 X126.052 Y119.156 E0.02152
G1 X125.802 Y119.095 E0.00806
G1 X125.609 Y119.164 E0.00645
G1 X124.592 Y119.318 E0.03223
G1 X123.417 Y119.218 E0.03700
G1 X122.764 Y119.025 E0.02136
G1 X122.521 Y118.901 E0.00855
G1 X122.225 Y118.934 E0.00934
G1 X121.285 Y118.840 E0.02960
G1 X120.183 Y118.476 E0.03640
G1 X119.506 Y118.075 E0.02466
G1 X119.393 Y117.980 E0.00463
G1 X118.999 Y117.892 E0.01266
G1 X118.243 Y117.851 E0.02376
G1 X117.282 Y117.539 E0.03166
G1 X116.485 Y117.015 E0.02991
G1 X115.837 Y116.348 E0.02917
G1 X115.507 Y115.864 E0.01836
G1 X115.399 Y115.628 E0.00813
G1 X114.933 Y115.186 E0.02013
G1 X114.788 Y115.112 E0.00511
G1 X114.264 Y114.743 E0.02008
G1 X113.624 Y114.110 E0.02823
G1 X113.034 Y113.115 E0.03627
G1 X112.920 Y112.717 E0.01300
G1 X112.670 Y112.306 E0.01509
G1 X112.426 Y111.682 E0.02100
G1 X112.366 Y111.342 E0.01082
G1 X112.172 Y111.139 E0.00880
G1 X111.799 Y110.569 E0.02136
G1 X111.366 Y109.471 E0.03700
G1 X111.223 Y108.454 E0.03223
G1 X111.231 Y108.278 E0.00550
G1 X110.896 Y107.477 E0.02722
G1 X110.705 Y106.258 E0.03870
G1 X110.773 Y105.294 E0.03031
G1 X110.855 Y105.010 E0.00925
G1 X110.796 Y104.809 E0.00657
G1 X110.701 Y103.830 E0.03085
G1 X110.870 Y102.618 E0.03837
G1 X111.101 Y101.978 E0.02134
G1 X111.234 Y101.751 E0.00825
G1 X111.223 Y101.527 E0.00702
G1 X111.366 Y100.527 E0.03168
G1 X111.799 Y99.430 E0.03697
G1 X112.175 Y98.856 E0.02152
G1 X112.324 Y98.701 E0.00674
G1 F5760
G1 X112.426 Y98.319 E-0.13702
G1 F5760
G1 X112.670 Y97.695 E-0.23205
G1 F5760
G1 X112.924 Y97.276 E-0.16948
G1 F5760
G1 X112.963 Y97.136 E-0.05048
G1 F5760
G1 X113.158 Y96.682 E-0.17096
G1 E-0.04000 F2100.00000
G1 X111.252 Y105.008 F7200.000
G1 E0.80000 F2100.00000
G1 F2100
G1 X111.169 Y104.750 E0.00848
G1 X111.078 Y103.816 E0.02944
G1 X111.231 Y102.728 E0.03445
G1 X111.449 Y102.125 E0.02010
G1 X111.620 Y101.843 E0.01035
G1 X111.599 Y101.557 E0.00900
G1 X111.726 Y100.643 E0.02892
G1 X112.126 Y99.620 E0.03443
G1 X112.480 Y99.080 E0.02025
G1 X112.719 Y98.838 E0.01068
G1 X112.785 Y98.436 E0.01276
G1 X113.015 Y97.848 E0.01979
G1 X113.275 Y97.426 E0.01554
G1 X113.316 Y97.271 E0.00505
G1 X113.520 Y96.793 E0.01630
G1 X113.956 Y96.161 E0.02404
G1 X114.519 Y95.604 E0.02486
G1 X114.966 Y95.304 E0.01686
G1 X115.783 Y94.513 E0.03565
G1 X115.872 Y94.322 E0.00661
G1 X116.136 Y93.951 E0.01426
G1 X116.742 Y93.331 E0.02720
G1 X117.379 Y92.902 E0.02408
G1 X118.062 Y92.639 E0.02296
G1 X118.767 Y92.569 E0.02219
G1 X119.329 Y92.413 E0.01829
G1 X119.550 Y92.394 E0.00694
G1 X119.790 Y92.183 E0.01003
G1 X120.350 Y91.861 E0.02025
G1 X121.394 Y91.521 E0.03443
G1 X122.314 Y91.448 E0.02893
G1 X122.589 Y91.484 E0.00871
G1 X122.814 Y91.364 E0.00799
G1 X123.547 Y91.142 E0.02402
G1 X125.107 Y91.101 E0.04892
G1 X125.804 Y91.295 E0.02268
G1 X126.094 Y91.220 E0.00940
G1 X126.739 Y91.183 E0.02026
G1 X127.824 Y91.349 E0.03443
G1 X128.678 Y91.696 E0.02891
G1 X128.909 Y91.851 E0.00871
G1 X129.173 Y91.845 E0.00829
G1 X129.897 Y91.968 E0.02302
G1 X130.997 Y92.433 E0.03746
G1 X131.217 Y92.579 E0.00826
G1 X131.517 Y92.612 E0.00949
G1 X132.154 Y92.821 E0.02100
G1 X132.955 Y93.325 E0.02966
G1 X133.525 Y93.895 E0.02528
G1 X133.686 Y94.127 E0.00889
G1 X133.853 Y94.275 E0.00698
G1 X134.198 Y94.684 E0.01679
G1 X134.306 Y94.872 E0.00679
G1 X135.012 Y95.065 E0.02294
G1 X135.805 Y95.497 E0.02831
G1 X136.516 Y96.176 E0.03083
G1 X136.980 Y96.888 E0.02663
G1 X137.233 Y97.617 E0.02423
G1 X137.283 Y98.461 E0.02649
G1 X137.672 Y99.259 E0.02785
G1 X137.836 Y99.851 E0.01926
G1 X137.857 Y100.291 E0.01380
G1 X138.030 Y100.513 E0.00882
G1 X138.436 Y101.359 E0.02941
G1 X138.655 Y102.354 E0.03196
G1 X138.666 Y103.074 E0.02259
G1 X138.600 Y103.407 E0.01064
G1 X138.740 Y103.715 E0.01061
G1 X138.887 Y104.340 E0.02011
G1 X138.913 Y105.438 E0.03445
G1 X138.713 Y106.355 E0.02943
G1 X138.601 Y106.601 E0.00845
G1 X138.665 Y106.920 E0.01021
G1 X138.664 Y107.566 E0.02025
G1 X138.436 Y108.640 E0.03442
G1 X138.040 Y109.473 E0.02892
G1 X137.862 Y109.703 E0.00912
G1 X137.847 Y110.074 E0.01164
G1 X137.693 Y110.684 E0.01972
G1 X137.295 Y111.517 E0.02894
G1 X137.286 Y112.103 E0.01839
G1 X137.164 Y112.716 E0.01961
G1 X136.684 Y113.681 E0.03379
G1 X135.941 Y114.470 E0.03398
G1 X134.787 Y115.083 E0.04096
G1 X134.294 Y115.183 E0.01577
G1 X133.928 Y115.647 E0.01852
G1 X133.801 Y115.769 E0.00555
G1 X133.532 Y116.162 E0.01491
G1 X132.927 Y116.773 E0.02698
G1 X131.914 Y117.343 E0.03645
G1 X131.315 Y117.492 E0.01933
G1 X131.078 Y117.509 E0.00747
G1 X130.882 Y117.632 E0.00726
G1 X129.842 Y118.047 E0.03510
G1 X129.260 Y118.150 E0.01853
G1 X128.917 Y118.142 E0.01077
G1 X128.678 Y118.304 E0.00904
G1 X127.824 Y118.651 E0.02891
G1 X126.739 Y118.817 E0.03442
G1 X126.094 Y118.780 E0.02025
G1 X125.779 Y118.698 E0.01020
G1 X125.528 Y118.795 E0.00846
G1 X124.600 Y118.941 E0.02944
G1 X123.505 Y118.851 E0.03445
G1 X122.890 Y118.669 E0.02010
G1 X122.591 Y118.510 E0.01064
G1 X122.237 Y118.557 E0.01118
G1 X121.383 Y118.475 E0.02690
G1 X120.321 Y118.125 E0.03505
G1 X119.718 Y117.762 E0.02208
G1 X119.541 Y117.606 E0.00740
G1 X119.343 Y117.590 E0.00624
G1 X119.057 Y117.517 E0.00925
G1 X118.332 Y117.483 E0.02277
G1 X117.465 Y117.209 E0.02849
G1 X116.740 Y116.736 E0.02716
G1 X116.139 Y116.122 E0.02696
G1 X115.829 Y115.667 E0.01725
G1 X115.714 Y115.407 E0.00889
G1 X115.150 Y114.873 E0.02437
G1 X114.991 Y114.794 E0.00558
G1 X114.518 Y114.464 E0.01809
G1 X113.907 Y113.860 E0.02692
G1 X113.373 Y112.948 E0.03313
G1 X113.270 Y112.566 E0.01240
G1 X113.015 Y112.152 E0.01527
G1 X112.785 Y111.564 E0.01978
G1 X112.719 Y111.162 E0.01277
G1 X112.476 Y110.916 E0.01086
G1 X112.125 Y110.379 E0.02011
G1 X111.726 Y109.356 E0.03445
G1 X111.599 Y108.426 E0.02943
G1 X111.619 Y108.169 E0.00806
G1 X111.508 Y107.993 E0.00652
G1 X111.265 Y107.398 E0.02015
G1 X111.081 Y106.222 E0.03733
G1 X111.147 Y105.345 E0.02755
G1 X111.234 Y105.065 E0.00920
G1 F5760
G1 X111.169 Y104.750 E-0.11133
G1 F5760
G1 X111.078 Y103.816 E-0.32516
G1 F5760
G1 X111.208 Y102.891 E-0.32351
G1 E-0.04000 F2100.00000
G1 X134.076 Y95.242 F7200.000
G1 E0.80000 F2100.00000
G1 F2100
G1 X134.290 Y95.258 E0.00673
G1 X134.852 Y95.408 E0.01825
G1 X135.601 Y95.816 E0.02676
G1 X136.238 Y96.432 E0.02779
G1 X136.631 Y97.033 E0.02252
G1 X136.868 Y97.715 E0.02262
G1 X136.909 Y98.557 E0.02644
G1 X137.314 Y99.377 E0.02868
G1 X137.467 Y99.929 E0.01796
G1 X137.484 Y100.432 E0.01576
G1 X137.702 Y100.699 E0.01081
G1 X138.072 Y101.462 E0.02659
G1 X138.283 Y102.416 E0.03062
G1 X138.288 Y103.055 E0.02005
G1 X138.203 Y103.454 E0.01278
G1 X138.378 Y103.822 E0.01279
G1 X138.515 Y104.406 E0.01880
G1 X138.535 Y105.422 E0.03187
G1 X138.350 Y106.250 E0.02659
G1 X138.204 Y106.553 E0.01056
G1 X138.288 Y106.941 E0.01244
G1 X138.287 Y107.545 E0.01893
G1 X138.072 Y108.537 E0.03184
G1 X137.710 Y109.288 E0.02612
G1 X137.488 Y109.566 E0.01117
G1 X137.476 Y110.003 E0.01371
G1 X137.332 Y110.572 E0.01841
G1 X136.918 Y111.429 E0.02982
G1 X136.912 Y112.051 E0.01951
G1 X136.813 Y112.575 E0.01673
G1 X136.389 Y113.444 E0.03031
G1 X135.688 Y114.188 E0.03205
G1 X134.640 Y114.734 E0.03707
G1 X134.040 Y114.845 E0.01914
G1 X133.947 Y115.014 E0.00606
G1 X133.641 Y115.401 E0.01546
G1 X133.512 Y115.523 E0.00558
G1 X133.251 Y115.909 E0.01461
G1 X132.677 Y116.490 E0.02558
G1 X131.798 Y116.984 E0.03161
G1 X131.243 Y117.121 E0.01793
G1 X130.956 Y117.137 E0.00904
G1 X130.722 Y117.290 E0.00877
G1 X129.757 Y117.679 E0.03262
G1 X129.216 Y117.775 E0.01724
G1 X128.802 Y117.760 E0.01298
G1 X128.513 Y117.965 E0.01110
G1 X127.743 Y118.282 E0.02611
G1 X126.740 Y118.439 E0.03184
G1 X126.137 Y118.405 E0.01893
G1 X125.755 Y118.299 E0.01243
G1 X125.443 Y118.427 E0.01057
G1 X124.606 Y118.563 E0.02659
G1 X123.593 Y118.484 E0.03186
G1 X123.018 Y118.313 E0.01879
G1 X122.661 Y118.117 E0.01279
G1 X122.246 Y118.179 E0.01313
G1 X121.478 Y118.110 E0.02417
G1 X120.497 Y117.791 E0.03236
G1 X119.930 Y117.450 E0.02073
G1 X119.698 Y117.237 E0.00988
G1 X119.417 Y117.219 E0.00884
G1 X119.110 Y117.141 E0.00992
G1 X118.420 Y117.116 E0.02165
G1 X117.604 Y116.857 E0.02684
G1 X116.994 Y116.458 E0.02287
G1 X116.441 Y115.895 E0.02475
G1 X116.152 Y115.471 E0.01609
G1 X116.032 Y115.189 E0.00961
G1 X115.366 Y114.557 E0.02879
G1 X115.191 Y114.474 E0.00605
G1 X114.771 Y114.184 E0.01603
G1 X114.191 Y113.610 E0.02558
G1 X113.714 Y112.784 E0.02989
G1 X113.622 Y112.418 E0.01185
G1 X113.359 Y111.997 E0.01554
G1 X113.144 Y111.448 E0.01851
G1 X113.075 Y110.982 E0.01477
G1 X112.780 Y110.691 E0.01297
G1 X112.452 Y110.190 E0.01880
G1 X112.086 Y109.242 E0.03186
G1 X111.976 Y108.401 E0.02659
G1 X112.008 Y108.075 E0.01028
G1 X111.848 Y107.829 E0.00918
G1 X111.634 Y107.317 E0.01743
G1 X111.457 Y106.186 E0.03588
G1 X111.521 Y105.400 E0.02471
G1 X111.651 Y105.005 E0.01306
G1 X111.542 Y104.688 E0.01051
G1 X111.455 Y103.844 E0.02659
G1 X111.593 Y102.837 E0.03186
G1 X111.797 Y102.274 E0.01879
G1 X112.009 Y101.935 E0.01254
G1 X111.976 Y101.583 E0.01107
G1 X112.086 Y100.757 E0.02612
G1 X112.452 Y99.810 E0.03184
G1 X112.783 Y99.305 E0.01894
G1 X113.075 Y99.019 E0.01280
G1 X113.144 Y98.552 E0.01480
G1 X113.359 Y98.003 E0.01851
G1 X113.627 Y97.575 E0.01584
G1 X113.669 Y97.404 E0.00553
G1 X113.860 Y96.958 E0.01518
G1 X114.233 Y96.417 E0.02062
G1 X114.771 Y95.886 E0.02371
G1 X115.236 Y95.578 E0.01749
G1 X115.311 Y95.481 E0.00383
G1 X115.960 Y94.859 E0.02819
G1 X116.080 Y94.773 E0.00464
G1 X116.192 Y94.524 E0.00855
G1 X116.434 Y94.182 E0.01314
G1 X116.998 Y93.608 E0.02521
G1 X117.535 Y93.246 E0.02031
G1 X118.172 Y93.001 E0.02143
G1 X118.833 Y92.942 E0.02081
