; generated by Slic3r 1.37.2 on 2017-12-18 at 10:45:10

; 

; external perimeters extrusion width = 0.45mm
; perimeters extrusion width = 0.45mm
; infill extrusion width = 0.45mm
; solid infill extrusion width = 0.45mm
; top infill extrusion width = 0.40mm
; first layer extrusion width = 0.42mm

M107
M115 U3.0.12 ; tell printer latest fw version
M83  ; extruder relative mode
M104 S275 ; set extruder temp
M140 S80 ; set bed temp
M190 S80 ; wait for bed temp
M109 S275 ; wait for extruder temp
G28 W ; home all without mesh bed level
G80 ; mesh bed leveling
G1 Y-3.0 F1000.0 ; go outside pritn area
G1 X60.0 E9.0  F1000.0 ; intro line
G1 X100.0 E12.5  F1000.0 ; intro line
; Filament gcode

G21 ; set units to millimeters
G90 ; use absolute coordinates
M83 ; use relative distances for extrusion
G1 E-0.80000 F2100.00000
G1 Z0.200 F7200.000
G1 X101.694 Y117.122 F7200.000
G1 E0.80000 F2100.00000
M204 S1000
G1 F2100
G1 X101.991 Y114.416 E0.08535
G1 X102.211 Y113.613 E0.02611
G1 X103.033 Y111.630 E0.06729
G1 X103.364 Y111.043 E0.02112
G1 X104.902 Y109.059 E0.07873
G1 X129.163 Y84.806 E1.07561
G1 X131.167 Y83.287 E0.07885
G1 X133.642 Y82.200 E0.08475
G1 X134.436 Y81.988 E0.02576
G1 X137.108 Y81.694 E0.08428
G1 X139.524 Y81.993 E0.07634
G1 X140.305 Y82.207 E0.02540
G1 X142.756 Y83.283 E0.08392
G1 X144.682 Y84.736 E0.07562
G1 X145.246 Y85.296 E0.02492
G1 X146.706 Y87.225 E0.07587
G1 X147.785 Y89.674 E0.08392
G1 X147.975 Y90.313 E0.02088
G1 X148.306 Y92.867 E0.08075
G1 X148.304 Y117.203 E0.76304
G1 X148.010 Y119.505 E0.07278
G1 X147.869 Y120.085 E0.01869
G1 X146.973 Y122.284 E0.07446
G1 X146.636 Y122.885 E0.02162
G1 X144.875 Y125.093 E0.08857
G1 X142.762 Y126.713 E0.08348
G1 X140.085 Y127.869 E0.09142
G1 X139.512 Y128.009 E0.01850
G1 X137.327 Y128.295 E0.06908
G1 X112.767 Y128.302 E0.77008
G1 X110.491 Y128.009 E0.07194
G1 X109.910 Y127.868 E0.01873
G1 X107.715 Y126.973 E0.07432
G1 X107.115 Y126.636 E0.02159
G1 X105.122 Y125.090 E0.07908
G1 X103.426 Y122.975 E0.08499
G1 X103.016 Y122.259 E0.02587
G1 X102.195 Y120.276 E0.06729
G1 X102.029 Y119.706 E0.01862
G1 X101.702 Y117.181 E0.07982
G1 F5760
G1 X101.930 Y114.999 E-0.76000
G1 E-0.04000 F2100.00000
G1 X134.625 Y116.964 F7200.000
G1 E0.80000 F2100.00000
G1 F840
G1 X134.666 Y116.526 E0.01381
G1 X134.789 Y116.103 E0.01381
G1 X134.989 Y115.711 E0.01381
G1 X135.259 Y115.363 E0.01381
G1 X135.589 Y115.072 E0.01381
G1 X135.968 Y114.847 E0.01381
G1 X136.374 Y114.701 E0.01352
G1 X136.671 Y114.645 E0.00949
G1 X136.971 Y114.626 E0.00943
G1 X137.403 Y114.666 E0.01358
G1 X137.826 Y114.789 E0.01381
G1 X138.218 Y114.989 E0.01381
G1 X138.566 Y115.259 E0.01381
G1 X138.857 Y115.589 E0.01381
G1 X139.078 Y115.962 E0.01358
G1 X139.188 Y116.242 E0.00943
G1 X139.264 Y116.535 E0.00949
G1 X139.303 Y116.955 E0.01322
G1 X139.284 Y117.257 E0.00950
G1 X139.227 Y117.555 E0.00950
G1 X139.081 Y117.961 E0.01352
G1 X138.857 Y118.340 E0.01381
G1 X138.566 Y118.670 E0.01381
G1 X138.218 Y118.940 E0.01381
G1 X137.826 Y119.140 E0.01381
G1 X137.403 Y119.263 E0.01381
G1 X136.964 Y119.304 E0.01381
G1 X136.535 Y119.264 E0.01352
G1 X136.242 Y119.188 E0.00949
G1 X135.962 Y119.078 E0.00943
G1 X135.589 Y118.857 E0.01358
G1 X135.259 Y118.566 E0.01381
G1 X134.989 Y118.218 E0.01381
G1 X134.789 Y117.826 E0.01381
G1 X134.666 Y117.403 E0.01381
G1 X134.630 Y117.024 E0.01193
G1 X135.006 Y116.989 F7200.000
G1 F840
G1 X135.038 Y116.597 E0.01232
G1 X135.141 Y116.243 E0.01157
G1 X135.309 Y115.914 E0.01157
G1 X135.535 Y115.622 E0.01157
G1 X135.812 Y115.378 E0.01157
G1 X136.129 Y115.190 E0.01157
G1 X136.474 Y115.066 E0.01147
G1 X136.719 Y115.019 E0.00782
G1 X136.966 Y115.004 E0.00776
G1 X137.332 Y115.038 E0.01153
G1 X137.686 Y115.141 E0.01157
G1 X138.015 Y115.309 E0.01157
G1 X138.307 Y115.535 E0.01157
G1 X138.551 Y115.812 E0.01157
G1 X138.738 Y116.129 E0.01153
G1 X138.829 Y116.359 E0.00776
G1 X138.891 Y116.600 E0.00782
G1 X138.925 Y116.961 E0.01136
G1 X138.909 Y117.210 E0.00782
G1 X138.863 Y117.455 E0.00782
G1 X138.739 Y117.799 E0.01147
G1 X138.551 Y118.117 E0.01157
G1 X138.307 Y118.394 E0.01157
G1 X138.015 Y118.620 E0.01157
G1 X137.686 Y118.788 E0.01157
G1 X137.332 Y118.891 E0.01157
G1 X136.964 Y118.925 E0.01157
G1 X136.600 Y118.891 E0.01147
G1 X136.359 Y118.829 E0.00782
G1 X136.129 Y118.738 E0.00776
G1 X135.812 Y118.551 E0.01153
G1 X135.535 Y118.307 E0.01157
G1 X135.309 Y118.015 E0.01157
G1 X135.141 Y117.686 E0.01157
G1 X135.038 Y117.332 E0.01157
G1 X135.011 Y117.048 E0.00893
G1 X134.664 Y116.795 F7200.000
G1 F5760
G1 X135.038 Y116.597 E-0.15663
G1 F5760
G1 X135.141 Y116.243 E-0.12783
G1 F5760
G1 X135.309 Y115.914 E-0.12783
G1 F5760
G1 X135.535 Y115.622 E-0.12783
G1 F5760
G1 X135.812 Y115.378 E-0.12783
G1 F5760
G1 X136.041 Y115.243 E-0.09204
G1 E-0.04000 F2100.00000
G1 X137.237 Y110.158 F7200.000
G1 E0.80000 F2100.00000
G1 F1680
G1 X138.450 Y110.318 E0.03836
G1 X138.792 Y109.566 E0.02591
G1 X139.040 Y109.219 E0.01338
G1 X139.079 Y109.543 E0.01025
G1 X139.075 Y109.817 E0.00859
G1 X138.978 Y110.456 E0.02027
G1 X140.120 Y110.929 E0.03874
G1 X140.645 Y110.291 E0.02591
G1 X140.974 Y110.020 E0.01338
G1 X140.928 Y110.343 E0.01025
G1 X140.853 Y110.607 E0.00859
G1 X140.594 Y111.199 E0.02027
G1 X141.594 Y111.967 E0.03953
G1 X142.099 Y111.563 E0.02027
G1 X142.334 Y111.422 E0.00859
G1 X142.635 Y111.294 E0.01025
G1 X142.458 Y111.682 E0.01338
G1 X141.977 Y112.355 E0.02591
G1 X142.715 Y113.315 E0.03796
G1 X143.488 Y113.025 E0.02591
G1 X143.909 Y112.955 E0.01338
G1 X143.707 Y113.212 E0.01025
G1 X143.511 Y113.403 E0.00859
G1 X142.990 Y113.786 E0.02027
G1 X143.473 Y114.951 E0.03953
G1 X144.112 Y114.854 E0.02027
G1 X144.386 Y114.850 E0.00859
G1 X144.710 Y114.889 E0.01025
G1 X144.363 Y115.137 E0.01338
G1 X143.611 Y115.479 E0.02591
G1 X143.772 Y116.704 E0.03874
G1 X144.414 Y116.776 E0.02027
G1 X144.680 Y116.843 E0.00859
G1 X144.983 Y116.964 E0.01025
G1 X144.584 Y117.114 E0.01338
G1 X143.769 Y117.250 E0.02591
G1 X143.611 Y118.450 E0.03796
G1 X144.363 Y118.792 E0.02591
G1 X144.710 Y119.040 E0.01338
G1 X144.386 Y119.079 E0.01025
G1 X144.112 Y119.075 E0.00859
G1 X143.473 Y118.978 E0.02027
G1 X143.000 Y120.120 E0.03874
G1 X143.638 Y120.645 E0.02591
G1 X143.909 Y120.974 E0.01338
G1 X143.585 Y120.928 E0.01025
G1 X143.322 Y120.853 E0.00859
G1 X142.730 Y120.594 E0.02027
G1 X141.962 Y121.594 E0.03953
G1 X142.366 Y122.099 E0.02027
G1 X142.506 Y122.334 E0.00859
G1 X142.635 Y122.635 E0.01025
G1 X142.246 Y122.458 E0.01338
G1 X141.574 Y121.977 E0.02591
G1 X140.614 Y122.715 E0.03796
G1 X140.904 Y123.488 E0.02591
G1 X140.974 Y123.909 E0.01338
G1 X140.717 Y123.707 E0.01025
G1 X140.526 Y123.511 E0.00859
G1 X140.143 Y122.990 E0.02027
G1 X138.978 Y123.473 E0.03953
G1 X139.075 Y124.112 E0.02027
G1 X139.079 Y124.386 E0.00859
G1 X139.040 Y124.710 E0.01025
G1 X138.792 Y124.363 E0.01338
G1 X138.450 Y123.611 E0.02591
G1 X137.225 Y123.772 E0.03874
G1 X137.153 Y124.414 E0.02027
G1 X137.086 Y124.680 E0.00859
G1 X136.964 Y124.983 E0.01025
G1 X136.815 Y124.584 E0.01338
G1 X136.679 Y123.769 E0.02591
G1 X135.479 Y123.611 E0.03796
G1 X135.137 Y124.363 E0.02591
G1 X134.889 Y124.710 E0.01338
G1 X134.850 Y124.386 E0.01025
G1 X134.854 Y124.112 E0.00859
G1 X134.951 Y123.473 E0.02027
G1 X133.809 Y123.000 E0.03874
G1 X133.284 Y123.638 E0.02591
G1 X132.955 Y123.909 E0.01338
G1 X133.001 Y123.585 E0.01025
G1 X133.076 Y123.322 E0.00859
G1 X133.335 Y122.730 E0.02027
G1 X132.335 Y121.962 E0.03953
G1 X131.830 Y122.366 E0.02027
G1 X131.595 Y122.506 E0.00859
G1 X131.294 Y122.635 E0.01025
G1 X131.471 Y122.246 E0.01338
G1 X131.951 Y121.574 E0.02591
G1 X131.214 Y120.614 E0.03796
G1 X130.441 Y120.904 E0.02591
G1 X130.020 Y120.974 E0.01338
G1 X130.221 Y120.717 E0.01025
G1 X130.418 Y120.526 E0.00859
G1 X130.939 Y120.143 E0.02027
G1 X130.456 Y118.978 E0.03953
G1 X129.817 Y119.075 E0.02027
G1 X129.543 Y119.079 E0.00859
G1 X129.219 Y119.040 E0.01025
G1 X129.566 Y118.792 E0.01338
G1 X130.318 Y118.450 E0.02591
G1 X130.157 Y117.225 E0.03874
G1 X129.514 Y117.153 E0.02027
G1 X129.249 Y117.086 E0.00859
G1 X128.945 Y116.964 E0.01025
G1 X129.345 Y116.815 E0.01338
G1 X130.160 Y116.679 E0.02591
G1 X130.318 Y115.479 E0.03796
G1 X129.566 Y115.137 E0.02591
G1 X129.219 Y114.889 E0.01338
G1 X129.543 Y114.850 E0.01025
G1 X129.817 Y114.854 E0.00859
G1 X130.456 Y114.951 E0.02027
G1 X130.929 Y113.809 E0.03874
G1 X130.291 Y113.284 E0.02591
G1 X130.020 Y112.955 E0.01338
G1 X130.343 Y113.001 E0.01025
G1 X130.607 Y113.076 E0.00859
G1 X131.199 Y113.335 E0.02027
G1 X131.967 Y112.335 E0.03953
G1 X131.563 Y111.830 E0.02027
G1 X131.422 Y111.595 E0.00859
G1 X131.294 Y111.294 E0.01025
G1 X131.682 Y111.471 E0.01338
G1 X132.355 Y111.951 E0.02591
G1 X133.315 Y111.214 E0.03796
G1 X133.025 Y110.441 E0.02591
G1 X132.955 Y110.020 E0.01338
G1 X133.212 Y110.221 E0.01025
G1 X133.403 Y110.418 E0.00859
G1 X133.786 Y110.939 E0.02027
G1 X134.928 Y110.466 E0.03874
G1 X134.848 Y109.643 E0.02591
G1 X134.889 Y109.219 E0.01338
G1 X135.085 Y109.480 E0.01025
G1 X135.218 Y109.719 E0.00859
G1 X135.454 Y110.321 E0.02027
G1 X136.679 Y110.160 E0.03875
G1 X136.815 Y109.345 E0.02591
G1 X136.964 Y108.947 E0.01333
G1 X137.048 Y109.140 E0.00661
G1 X137.137 Y109.436 E0.00970
G1 X137.229 Y110.099 E0.02098
G1 X137.571 Y109.822 F7200.000
G1 F1260
G1 X138.222 Y109.908 E0.02059
G1 X138.462 Y109.381 E0.01816
G1 X138.689 Y109.046 E0.01267
G1 X138.980 Y108.715 E0.01383
G1 X139.208 Y108.502 E0.00977
G1 X139.253 Y108.514 E0.00145
G1 X139.344 Y108.812 E0.00977
G1 X139.430 Y109.247 E0.01390
G1 X139.457 Y109.528 E0.00886
G1 X139.452 Y109.848 E0.01004
G1 X139.395 Y110.221 E0.01181
G1 X140.006 Y110.474 E0.02073
G1 X140.374 Y110.027 E0.01816
G1 X140.680 Y109.763 E0.01267
G1 X141.047 Y109.518 E0.01383
G1 X141.322 Y109.371 E0.00977
G1 X141.362 Y109.394 E0.00145
G1 X141.372 Y109.706 E0.00977
G1 X141.343 Y110.148 E0.01390
G1 X141.296 Y110.427 E0.00886
G1 X141.209 Y110.735 E0.01004
G1 X141.058 Y111.080 E0.01181
G1 X141.589 Y111.488 E0.02101
G1 X141.883 Y111.253 E0.01181
G1 X142.158 Y111.088 E0.01004
G1 X142.415 Y110.970 E0.00886
G1 X142.835 Y110.828 E0.01390
G1 X143.138 Y110.758 E0.00977
G1 X143.171 Y110.790 E0.00145
G1 X143.101 Y111.094 E0.00977
G1 X142.959 Y111.512 E0.01383
G1 X142.783 Y111.875 E0.01267
G1 X142.447 Y112.347 E0.01816
G1 X142.844 Y112.864 E0.02045
G1 X143.386 Y112.661 E0.01816
G1 X143.783 Y112.585 E0.01267
G1 X144.223 Y112.556 E0.01383
G1 X144.534 Y112.567 E0.00977
G1 X144.558 Y112.607 E0.00145
G1 X144.411 Y112.882 E0.00977
G1 X144.165 Y113.251 E0.01390
G1 X143.985 Y113.468 E0.00886
G1 X143.755 Y113.691 E0.01004
G1 X143.452 Y113.915 E0.01181
G1 X143.708 Y114.534 E0.02101
G1 X144.080 Y114.477 E0.01181
G1 X144.401 Y114.472 E0.01004
G1 X144.682 Y114.499 E0.00886
G1 X145.117 Y114.585 E0.01390
G1 X145.415 Y114.676 E0.00977
G1 X145.427 Y114.721 E0.00145
G1 X145.214 Y114.949 E0.00977
G1 X144.882 Y115.239 E0.01383
G1 X144.548 Y115.467 E0.01267
G1 X144.021 Y115.706 E0.01816
G1 X144.107 Y116.362 E0.02073
G1 X144.482 Y116.404 E0.01181
G1 X144.792 Y116.482 E0.01004
G1 X145.057 Y116.580 E0.00886
G1 X145.455 Y116.776 E0.01390
G1 X145.719 Y116.941 E0.00977
G1 X145.719 Y116.988 E0.00145
G1 X145.455 Y117.153 E0.00977
G1 X145.059 Y117.347 E0.01383
G1 X144.677 Y117.481 E0.01267
G1 X144.106 Y117.576 E0.01816
G1 X144.021 Y118.222 E0.02045
G1 X144.548 Y118.462 E0.01816
G1 X144.882 Y118.689 E0.01267
G1 X145.214 Y118.980 E0.01383
G1 X145.427 Y119.208 E0.00977
G1 X145.415 Y119.253 E0.00145
G1 X145.117 Y119.344 E0.00977
G1 X144.682 Y119.430 E0.01390
G1 X144.401 Y119.457 E0.00886
G1 X144.080 Y119.452 E0.01004
G1 X143.708 Y119.395 E0.01181
G1 X143.455 Y120.006 E0.02073
G1 X143.902 Y120.374 E0.01816
G1 X144.166 Y120.680 E0.01267
G1 X144.411 Y121.047 E0.01383
G1 X144.558 Y121.322 E0.00977
G1 X144.534 Y121.362 E0.00145
G1 X144.223 Y121.372 E0.00977
G1 X143.781 Y121.343 E0.01390
G1 X143.502 Y121.296 E0.00886
G1 X143.194 Y121.209 E0.01004
G1 X142.849 Y121.058 E0.01181
G1 X142.441 Y121.589 E0.02101
G1 X142.676 Y121.883 E0.01181
G1 X142.841 Y122.158 E0.01004
G1 X142.958 Y122.415 E0.00886
G1 X143.101 Y122.835 E0.01390
G1 X143.171 Y123.138 E0.00977
G1 X143.138 Y123.171 E0.00145
G1 X142.835 Y123.101 E0.00977
G1 X142.417 Y122.959 E0.01383
G1 X142.053 Y122.783 E0.01267
G1 X141.582 Y122.447 E0.01816
G1 X141.065 Y122.844 E0.02045
G1 X141.268 Y123.386 E0.01816
G1 X141.343 Y123.783 E0.01267
G1 X141.372 Y124.223 E0.01383
G1 X141.362 Y124.534 E0.00977
G1 X141.322 Y124.558 E0.00145
G1 X141.047 Y124.411 E0.00977
G1 X140.678 Y124.165 E0.01390
G1 X140.460 Y123.985 E0.00886
G1 X140.238 Y123.755 E0.01004
G1 X140.014 Y123.452 E0.01181
G1 X139.395 Y123.708 E0.02101
G1 X139.452 Y124.080 E0.01181
G1 X139.457 Y124.401 E0.01004
G1 X139.430 Y124.682 E0.00886
G1 X139.344 Y125.117 E0.01390
G1 X139.253 Y125.415 E0.00977
G1 X139.208 Y125.427 E0.00145
G1 X138.980 Y125.214 E0.00977
G1 X138.689 Y124.882 E0.01383
G1 X138.462 Y124.548 E0.01267
G1 X138.222 Y124.021 E0.01816
G1 X137.567 Y124.107 E0.02073
G1 X137.525 Y124.482 E0.01181
G1 X137.447 Y124.792 E0.01004
G1 X137.348 Y125.057 E0.00886
G1 X137.153 Y125.455 E0.01390
G1 X136.988 Y125.719 E0.00977
G1 X136.941 Y125.719 E0.00145
G1 X136.776 Y125.455 E0.00977
G1 X136.581 Y125.059 E0.01383
G1 X136.448 Y124.677 E0.01267
G1 X136.353 Y124.106 E0.01816
G1 X135.706 Y124.021 E0.02045
G1 X135.467 Y124.548 E0.01816
G1 X135.239 Y124.882 E0.01267
G1 X134.949 Y125.214 E0.01383
G1 X134.721 Y125.427 E0.00977
G1 X134.676 Y125.415 E0.00145
G1 X134.585 Y125.117 E0.00977
G1 X134.499 Y124.682 E0.01390
G1 X134.472 Y124.401 E0.00886
G1 X134.477 Y124.080 E0.01004
G1 X134.534 Y123.708 E0.01181
G1 X133.923 Y123.455 E0.02073
G1 X133.555 Y123.902 E0.01816
G1 X133.249 Y124.166 E0.01267
G1 X132.882 Y124.411 E0.01383
G1 X132.607 Y124.558 E0.00977
G1 X132.567 Y124.534 E0.00145
G1 X132.556 Y124.223 E0.00977
G1 X132.585 Y123.781 E0.01390
G1 X132.633 Y123.502 E0.00886
G1 X132.720 Y123.194 E0.01004
G1 X132.871 Y122.849 E0.01181
G1 X132.340 Y122.441 E0.02101
G1 X132.045 Y122.676 E0.01181
G1 X131.771 Y122.841 E0.01004
G1 X131.514 Y122.958 E0.00886
G1 X131.094 Y123.101 E0.01390
G1 X130.790 Y123.171 E0.00977
G1 X130.758 Y123.138 E0.00145
G1 X130.828 Y122.835 E0.00977
G1 X130.970 Y122.417 E0.01383
G1 X131.146 Y122.053 E0.01267
G1 X131.482 Y121.582 E0.01816
G1 X131.085 Y121.065 E0.02045
G1 X130.543 Y121.268 E0.01816
G1 X130.146 Y121.343 E0.01267
G1 X129.706 Y121.372 E0.01383
G1 X129.394 Y121.362 E0.00977
G1 X129.371 Y121.322 E0.00145
G1 X129.518 Y121.047 E0.00977
G1 X129.764 Y120.678 E0.01390
G1 X129.944 Y120.460 E0.00886
G1 X130.174 Y120.238 E0.01004
G1 X130.477 Y120.014 E0.01181
G1 X130.221 Y119.395 E0.02101
G1 X129.848 Y119.452 E0.01181
G1 X129.528 Y119.457 E0.01004
G1 X129.247 Y119.430 E0.00886
G1 X128.812 Y119.344 E0.01390
G1 X128.514 Y119.253 E0.00977
G1 X128.502 Y119.208 E0.00145
G1 X128.715 Y118.980 E0.00977
G1 X129.046 Y118.689 E0.01383
G1 X129.381 Y118.462 E0.01267
G1 X129.908 Y118.222 E0.01816
G1 X129.822 Y117.567 E0.02073
G1 X129.447 Y117.525 E0.01181
G1 X129.137 Y117.447 E0.01004
G1 X128.872 Y117.348 E0.00886
G1 X128.474 Y117.153 E0.01390
G1 X128.210 Y116.988 E0.00977
G1 X128.210 Y116.941 E0.00145
G1 X128.474 Y116.776 E0.00977
G1 X128.870 Y116.581 E0.01383
G1 X129.251 Y116.448 E0.01267
G1 X129.823 Y116.353 E0.01816
G1 X129.908 Y115.706 E0.02045
G1 X129.381 Y115.467 E0.01816
G1 X129.046 Y115.239 E0.01267
G1 X128.715 Y114.949 E0.01383
G1 X128.502 Y114.721 E0.00977
G1 X128.514 Y114.676 E0.00145
G1 X128.812 Y114.585 E0.00977
G1 X129.247 Y114.499 E0.01390
G1 X129.528 Y114.472 E0.00886
G1 X129.848 Y114.477 E0.01004
G1 X130.221 Y114.534 E0.01181
G1 X130.474 Y113.923 E0.02073
G1 X130.027 Y113.555 E0.01816
G1 X129.763 Y113.249 E0.01267
G1 X129.518 Y112.882 E0.01383
G1 X129.371 Y112.607 E0.00977
G1 X129.394 Y112.567 E0.00145
G1 X129.706 Y112.556 E0.00977
G1 X130.148 Y112.585 E0.01390
G1 X130.427 Y112.633 E0.00886
G1 X130.735 Y112.720 E0.01004
G1 X131.080 Y112.871 E0.01181
G1 X131.488 Y112.340 E0.02101
G1 X131.253 Y112.045 E0.01181
G1 X131.088 Y111.771 E0.01004
G1 X130.970 Y111.514 E0.00886
G1 X130.828 Y111.094 E0.01390
G1 X130.758 Y110.790 E0.00977
G1 X130.790 Y110.758 E0.00145
G1 X131.094 Y110.828 E0.00977
