; generated by Slic3r 1.37.2 on 2017-12-12 at 14:06:10

; 

; external perimeters extrusion width = 0.30mm
; perimeters extrusion width = 0.30mm
; infill extrusion width = 0.45mm
; solid infill extrusion width = 0.45mm
; top infill extrusion width = 0.40mm
; support material extrusion width = 0.35mm
; first layer extrusion width = 0.42mm

M107
M115 U3.0.12 ; tell printer latest fw version
M83  ; extruder relative mode
M104 S255 ; set extruder temp
M140 S80 ; set bed temp
M190 S80 ; wait for bed temp
M109 S255 ; wait for extruder temp
G28 W ; home all without mesh bed level
G80 ; mesh bed leveling
G1 Y-3.0 F1000.0 ; go outside pritn area
G1 X60.0 E9.0  F1000.0 ; intro line
G1 X100.0 E12.5  F1000.0 ; intro line
; Filament gcode

G21 ; set units to millimeters
G90 ; use absolute coordinates
M83 ; use relative distances for extrusion
G1 E-0.80000 F2100.00000
G1 Z0.200 F7200.000
G1 X113.911 Y98.811 F7200.000
G1 E0.80000 F2100.00000
M204 S1000
G1 F2100
G1 X114.733 Y97.563 E0.04686
G1 X116.884 Y95.247 E0.09910
G1 X118.135 Y94.359 E0.04812
G1 X121.097 Y92.940 E0.10298
G1 X122.428 Y92.616 E0.04294
G1 X125.465 Y92.355 E0.09559
G1 X127.067 Y92.539 E0.05053
G1 X130.288 Y93.516 E0.10555
G1 X131.508 Y94.202 E0.04388
G1 X133.539 Y95.735 E0.07980
G1 X134.138 Y96.282 E0.02544
G1 X134.972 Y97.315 E0.04163
G1 X136.316 Y99.478 E0.07983
G1 X136.703 Y100.278 E0.02784
G1 X137.041 Y101.315 E0.03420
G1 X137.516 Y103.804 E0.07947
G1 X137.615 Y105.133 E0.04180
G1 X137.545 Y106.031 E0.02821
G1 X137.083 Y108.510 E0.07907
G1 X136.679 Y109.782 E0.04187
G1 X136.312 Y110.526 E0.02599
G1 X134.978 Y112.683 E0.07951
G1 X134.111 Y113.745 E0.04299
G1 X133.548 Y114.252 E0.02377
G1 X131.500 Y115.804 E0.08058
G1 X130.274 Y116.490 E0.04403
G1 X127.063 Y117.462 E0.10519
G1 X125.456 Y117.645 E0.05071
G1 X122.396 Y117.379 E0.09632
G1 X120.971 Y117.016 E0.04611
G1 X117.978 Y115.552 E0.10446
G1 X117.118 Y114.948 E0.03297
G1 X116.510 Y114.393 E0.02581
G1 X114.565 Y112.226 E0.09130
G1 X114.016 Y111.381 E0.03158
G1 X113.660 Y110.633 E0.02599
G1 X112.767 Y108.330 E0.07744
G1 X112.533 Y107.467 E0.02803
G1 X112.390 Y106.382 E0.03430
G1 X112.385 Y103.858 E0.07914
G1 X112.451 Y102.990 E0.02729
G1 X112.678 Y101.947 E0.03350
G1 X113.889 Y98.867 E0.10376
G1 X114.239 Y99.005 F7200.000
G1 F2100
G1 X115.028 Y97.798 E0.04522
G1 X117.140 Y95.524 E0.09728
G1 X118.320 Y94.688 E0.04536
G1 X121.225 Y93.294 E0.10103
G1 X122.488 Y92.989 E0.04072
G1 X125.465 Y92.732 E0.09371
G1 X126.988 Y92.908 E0.04806
G1 X130.137 Y93.861 E0.10316
G1 X131.294 Y94.512 E0.04162
G1 X133.300 Y96.027 E0.07881
G1 X133.866 Y96.543 E0.02405
G1 X134.656 Y97.521 E0.03942
G1 X135.987 Y99.663 E0.07905
G1 X136.352 Y100.415 E0.02620
G1 X136.675 Y101.403 E0.03259
G1 X137.146 Y103.874 E0.07888
G1 X137.238 Y105.133 E0.03960
G1 X137.172 Y105.978 E0.02656
G1 X136.714 Y108.432 E0.07827
G1 X136.328 Y109.643 E0.03985
G1 X135.983 Y110.341 E0.02441
G1 X134.663 Y112.476 E0.07872
G1 X133.845 Y113.478 E0.04056
G1 X131.285 Y115.494 E0.10215
G1 X130.129 Y116.142 E0.04158
G1 X126.985 Y117.093 E0.10299
G1 X125.456 Y117.268 E0.04823
G1 X122.451 Y117.006 E0.09460
G1 X121.103 Y116.663 E0.04360
G1 X118.178 Y115.232 E0.10211
G1 X117.353 Y114.653 E0.03161
G1 X116.778 Y114.128 E0.02441
G1 X114.873 Y112.007 E0.08938
G1 X114.347 Y111.199 E0.03025
G1 X114.011 Y110.496 E0.02441
G1 X113.124 Y108.209 E0.07691
G1 X112.904 Y107.397 E0.02638
G1 X112.767 Y106.357 E0.03289
G1 X112.762 Y103.858 E0.07836
G1 X112.825 Y103.042 E0.02566
G1 X113.041 Y102.047 E0.03193
G1 X114.217 Y99.060 E0.10064
G1 F5760
G1 X115.028 Y97.798 E-0.51986
G1 F5760
G1 X115.500 Y97.290 E-0.24014
G1 E-0.04000 F2100.00000
G1 X115.072 Y101.170 F7200.000
G1 E0.80000 F2100.00000
G1 F2100
G1 X115.135 Y100.624 E0.01722
G1 X115.492 Y99.636 E0.03294
G1 X116.096 Y98.714 E0.03455
G1 X116.625 Y98.187 E0.02342
G1 X117.121 Y97.863 E0.01859
G1 X117.378 Y97.374 E0.01731
G1 X118.068 Y96.580 E0.03298
G1 X118.964 Y95.939 E0.03457
G1 X119.648 Y95.638 E0.02342
G1 X120.228 Y95.516 E0.01859
G1 X120.645 Y95.152 E0.01735
G1 X121.575 Y94.661 E0.03295
G1 X122.642 Y94.387 E0.03456
G1 X123.389 Y94.354 E0.02344
G1 X123.978 Y94.450 E0.01870
G1 X124.603 Y94.230 E0.02078
G1 X125.177 Y94.148 E0.01817
G1 X125.748 Y94.161 E0.01794
G1 X126.586 Y94.258 E0.02643
G1 X127.289 Y94.485 E0.02318
G1 X127.846 Y94.807 E0.02017
G1 X128.386 Y94.815 E0.01691
G1 X129.117 Y94.973 E0.02345
G1 X130.169 Y95.455 E0.03629
G1 X130.997 Y96.111 E0.03313
G1 X131.341 Y96.545 E0.01736
G1 X131.888 Y96.773 E0.01859
G1 X132.505 Y97.193 E0.02341
G1 X133.269 Y97.989 E0.03456
G1 X133.801 Y98.896 E0.03298
G1 X133.964 Y99.424 E0.01732
G1 X134.392 Y99.833 E0.01857
G1 X134.815 Y100.449 E0.02343
G1 X135.240 Y101.466 E0.03456
G1 X135.409 Y102.503 E0.03295
G1 X135.370 Y103.055 E0.01736
G1 X135.621 Y103.592 E0.01859
G1 X135.794 Y104.319 E0.02341
G1 X135.822 Y105.420 E0.03456
G1 X135.604 Y106.449 E0.03298
G1 X135.369 Y106.949 E0.01733
G1 X135.410 Y107.540 E0.01858
G1 X135.308 Y108.281 E0.02343
G1 X134.936 Y109.318 E0.03456
G1 X134.362 Y110.198 E0.03294
G1 X133.961 Y110.580 E0.01736
G1 X133.786 Y111.146 E0.01859
G1 X133.424 Y111.799 E0.02341
G1 X132.702 Y112.633 E0.03456
G1 X131.848 Y113.247 E0.03298
G1 X131.337 Y113.457 E0.01733
G1 X130.969 Y113.922 E0.01858
G1 X130.395 Y114.400 E0.02342
G1 X129.422 Y114.916 E0.03456
G1 X128.405 Y115.180 E0.03295
G1 X127.851 Y115.192 E0.01736
G1 X127.340 Y115.492 E0.01859
G1 X126.633 Y115.731 E0.02340
G1 X125.449 Y115.860 E0.03735
G1 X124.492 Y115.739 E0.03022
G1 X123.974 Y115.551 E0.01731
G1 X123.389 Y115.646 E0.01858
G1 X122.642 Y115.613 E0.02343
G1 X121.575 Y115.339 E0.03456
G1 X120.645 Y114.848 E0.03294
G1 X120.232 Y114.487 E0.01722
G1 X119.719 Y114.383 E0.01639
G1 X118.956 Y114.056 E0.02603
G1 X117.706 Y113.064 E0.05003
G1 X117.302 Y112.509 E0.02154
G1 X117.116 Y112.139 E0.01298
G1 X116.717 Y111.884 E0.01485
G1 X115.976 Y111.135 E0.03304
G1 X115.376 Y110.122 E0.03690
G1 X115.131 Y109.367 E0.02491
G1 X115.071 Y108.835 E0.01677
G1 X114.824 Y108.507 E0.01288
G1 X114.525 Y107.949 E0.01985
G1 X114.182 Y106.441 E0.04850
G1 X114.220 Y105.509 E0.02924
G1 X114.353 Y105.007 E0.01627
G1 X114.241 Y104.612 E0.01289
G1 X114.164 Y103.982 E0.01988
G1 X114.420 Y102.349 E0.05182
G1 X114.763 Y101.593 E0.02606
G1 X115.037 Y101.218 E0.01454
G1 X115.437 Y101.312 F7200.000
G1 F2100
G1 X115.498 Y100.728 E0.01840
G1 X115.820 Y99.822 E0.03014
G1 X116.376 Y98.967 E0.03198
G1 X116.876 Y98.469 E0.02214
G1 X117.411 Y98.126 E0.01993
G1 X117.679 Y97.602 E0.01844
G1 X118.307 Y96.873 E0.03017
G1 X119.135 Y96.276 E0.03199
G1 X119.781 Y95.992 E0.02213
G1 X120.404 Y95.865 E0.01993
G1 X120.844 Y95.473 E0.01848
G1 X121.692 Y95.020 E0.03015
G1 X122.679 Y94.763 E0.03199
G1 X123.385 Y94.732 E0.02215
G1 X124.012 Y94.839 E0.01994
G1 X124.678 Y94.600 E0.02218
G1 X125.184 Y94.525 E0.01606
G1 X125.731 Y94.538 E0.01717
G1 X126.488 Y94.623 E0.02388
G1 X127.153 Y94.837 E0.02191
G1 X127.742 Y95.184 E0.02142
G1 X128.326 Y95.188 E0.01829
G1 X129.017 Y95.337 E0.02216
G1 X129.989 Y95.788 E0.03360
G1 X130.744 Y96.390 E0.03028
G1 X131.104 Y96.857 E0.01849
G1 X131.693 Y97.096 E0.01993
G1 X132.276 Y97.494 E0.02213
G1 X132.980 Y98.232 E0.03199
G1 X133.463 Y99.064 E0.03018
G1 X133.630 Y99.629 E0.01845
G1 X134.093 Y100.064 E0.01992
G1 X134.493 Y100.646 E0.02214
G1 X134.883 Y101.588 E0.03198
G1 X135.033 Y102.538 E0.03015
G1 X134.985 Y103.126 E0.01848
G1 X135.259 Y103.699 E0.01993
G1 X135.422 Y104.386 E0.02213
G1 X135.445 Y105.406 E0.03198
G1 X135.241 Y106.346 E0.03017
G1 X134.985 Y106.876 E0.01846
G1 X135.033 Y107.510 E0.01992
G1 X134.937 Y108.209 E0.02214
G1 X134.590 Y109.168 E0.03198
G1 X134.061 Y109.971 E0.03014
G1 X133.630 Y110.373 E0.01849
G1 X133.446 Y110.982 E0.01993
G1 X133.104 Y111.599 E0.02213
G1 X132.433 Y112.368 E0.03199
G1 X131.649 Y112.926 E0.03017
G1 X131.103 Y113.144 E0.01846
G1 X130.712 Y113.645 E0.01992
G1 X130.169 Y114.097 E0.02214
G1 X129.267 Y114.572 E0.03198
G1 X128.335 Y114.809 E0.03015
G1 X127.745 Y114.816 E0.01848
G1 X127.200 Y115.142 E0.01992
G1 X126.531 Y115.367 E0.02211
G1 X125.474 Y115.483 E0.03336
G1 X124.562 Y115.368 E0.02880
G1 X124.011 Y115.161 E0.01847
G1 X123.385 Y115.268 E0.01992
G1 X122.679 Y115.237 E0.02214
G1 X121.692 Y114.980 E0.03198
G1 X120.844 Y114.527 E0.03014
G1 X120.405 Y114.137 E0.01841
G1 X119.846 Y114.028 E0.01788
G1 X119.168 Y113.743 E0.02304
G1 X117.996 Y112.821 E0.04677
G1 X117.617 Y112.301 E0.02018
G1 X117.407 Y111.875 E0.01487
G1 X116.967 Y111.601 E0.01626
G1 X116.288 Y110.922 E0.03012
G1 X115.712 Y109.949 E0.03545
G1 X115.497 Y109.272 E0.02228
G1 X115.435 Y108.690 E0.01833
G1 X115.149 Y108.315 E0.01480
G1 X114.870 Y107.794 E0.01854
G1 X114.556 Y106.384 E0.04529
G1 X114.596 Y105.549 E0.02622
G1 X114.746 Y105.005 E0.01770
G1 X114.614 Y104.550 E0.01485
G1 X114.542 Y103.963 E0.01854
G1 X114.788 Y102.436 E0.04850
G1 X115.097 Y101.770 E0.02302
G1 X115.401 Y101.360 E0.01603
G1 X115.803 Y101.454 F7200.000
G1 F2100
G1 X115.862 Y100.829 E0.01966
G1 X116.150 Y100.007 E0.02732
G1 X116.657 Y99.220 E0.02936
G1 X117.127 Y98.751 E0.02081
G1 X117.702 Y98.389 E0.02131
G1 X117.982 Y97.828 E0.01965
G1 X118.548 Y97.164 E0.02735
G1 X119.305 Y96.613 E0.02937
G1 X119.913 Y96.346 E0.02081
G1 X120.580 Y96.215 E0.02131
G1 X121.044 Y95.793 E0.01967
G1 X121.811 Y95.379 E0.02733
G1 X122.717 Y95.139 E0.02937
G1 X123.380 Y95.109 E0.02082
G1 X124.045 Y95.228 E0.02119
G1 X124.752 Y94.970 E0.02359
G1 X125.222 Y94.901 E0.01490
G1 X125.713 Y94.915 E0.01539
G1 X126.391 Y94.988 E0.02139
G1 X127.017 Y95.190 E0.02060
G1 X127.638 Y95.561 E0.02270
G1 X128.267 Y95.561 E0.01971
G1 X128.916 Y95.701 E0.02083
G1 X129.808 Y96.119 E0.03088
G1 X130.488 Y96.668 E0.02741
G1 X130.867 Y97.168 E0.01968
G1 X131.498 Y97.419 E0.02131
G1 X132.047 Y97.793 E0.02080
G1 X132.690 Y98.474 E0.02937
G1 X133.124 Y99.231 E0.02735
G1 X133.296 Y99.834 E0.01966
G1 X133.795 Y100.295 E0.02130
G1 X134.171 Y100.842 E0.02082
G1 X134.525 Y101.709 E0.02937
G1 X134.656 Y102.571 E0.02733
G1 X134.600 Y103.196 E0.01968
G1 X134.897 Y103.807 E0.02131
G1 X135.050 Y104.453 E0.02080
G1 X135.067 Y105.389 E0.02937
G1 X134.878 Y106.241 E0.02735
G1 X134.600 Y106.803 E0.01966
G1 X134.657 Y107.480 E0.02130
G1 X134.566 Y108.137 E0.02082
G1 X134.244 Y109.017 E0.02937
G1 X133.760 Y109.742 E0.02732
G1 X133.297 Y110.166 E0.01968
G1 X133.106 Y110.818 E0.02131
G1 X132.784 Y111.398 E0.02080
G1 X132.165 Y112.101 E0.02937
G1 X131.452 Y112.603 E0.02735
G1 X130.868 Y112.831 E0.01966
G1 X130.454 Y113.369 E0.02130
G1 X129.944 Y113.794 E0.02081
G1 X129.113 Y114.227 E0.02937
G1 X128.267 Y114.437 E0.02733
G1 X127.640 Y114.439 E0.01968
G1 X127.059 Y114.791 E0.02131
G1 X126.430 Y115.003 E0.02081
G1 X125.499 Y115.107 E0.02937
G1 X124.633 Y114.997 E0.02736
G1 X124.049 Y114.771 E0.01965
G1 X123.380 Y114.891 E0.02130
G1 X122.716 Y114.861 E0.02082
G1 X121.811 Y114.621 E0.02937
G1 X121.044 Y114.207 E0.02732
G1 X120.580 Y113.785 E0.01967
G1 X119.973 Y113.672 E0.01938
G1 X119.338 Y113.405 E0.02159
G1 X118.285 Y112.578 E0.04197
G1 X117.932 Y112.093 E0.01882
G1 X117.698 Y111.610 E0.01681
G1 X117.216 Y111.316 E0.01773
G1 X116.599 Y110.707 E0.02718
G1 X116.065 Y109.814 E0.03264
G1 X115.862 Y109.177 E0.02094
G1 X115.800 Y108.546 E0.01990
G1 X115.474 Y108.123 E0.01675
G1 X115.215 Y107.639 E0.01720
G1 X114.930 Y106.330 E0.04202
G1 X114.971 Y105.592 E0.02316
G1 X115.139 Y105.003 E0.01922
G1 X114.986 Y104.488 E0.01684
G1 X114.919 Y103.944 E0.01719
G1 X115.141 Y102.571 E0.04359
G1 X115.430 Y101.947 E0.02156
G1 X115.767 Y101.501 E0.01753
G1 F5760
G1 X115.862 Y100.829 E-0.23509
G1 F5760
G1 X116.150 Y100.007 E-0.30178
G1 F5760
G1 X116.499 Y99.465 E-0.22314
G1 E-0.04000 F2100.00000
G1 X115.533 Y105.001 F7200.000
G1 E0.80000 F2100.00000
G1 F2100
G1 X115.358 Y104.425 E0.01888
G1 X115.297 Y103.924 E0.01583
G1 X115.494 Y102.706 E0.03868
G1 X115.763 Y102.126 E0.02007
G1 X116.170 Y101.596 E0.02095
G1 X116.227 Y100.928 E0.02099
G1 X116.480 Y100.190 E0.02448
G1 X116.938 Y99.472 E0.02670
G1 X117.377 Y99.034 E0.01945
G1 X117.994 Y98.652 E0.02274
G1 X118.286 Y98.052 E0.02093
G1 X118.790 Y97.454 E0.02451
G1 X119.476 Y96.950 E0.02671
G1 X120.044 Y96.700 E0.01945
G1 X120.757 Y96.566 E0.02273
G1 X121.247 Y96.112 E0.02095
G1 X121.932 Y95.737 E0.02449
G1 X122.754 Y95.515 E0.02671
G1 X123.374 Y95.487 E0.01946
G1 X124.079 Y95.618 E0.02246
G1 X124.827 Y95.340 E0.02504
G1 X125.260 Y95.276 E0.01372
G1 X125.694 Y95.291 E0.01360
G1 X126.295 Y95.353 E0.01895
G1 X126.879 Y95.541 E0.01925
G1 X127.534 Y95.939 E0.02401
G1 X128.208 Y95.934 E0.02115
G1 X128.815 Y96.065 E0.01946
G1 X129.625 Y96.449 E0.02810
G1 X130.230 Y96.944 E0.02452
G1 X130.628 Y97.481 E0.02095
G1 X131.304 Y97.744 E0.02273
G1 X131.817 Y98.093 E0.01944
G1 X132.399 Y98.715 E0.02671
G1 X132.784 Y99.395 E0.02451
G1 X132.961 Y100.039 E0.02094
G1 X133.497 Y100.527 E0.02273
G1 X133.848 Y101.039 E0.01945
G1 X134.166 Y101.829 E0.02671
G1 X134.280 Y102.601 E0.02449
G1 X134.213 Y103.266 E0.02096
G1 X134.535 Y103.916 E0.02273
G1 X134.679 Y104.519 E0.01944
G1 X134.690 Y105.371 E0.02671
G1 X134.516 Y106.133 E0.02451
G1 X134.214 Y106.728 E0.02094
G1 X134.280 Y107.450 E0.02273
G1 X134.196 Y108.065 E0.01945
G1 X133.898 Y108.863 E0.02671
G1 X133.462 Y109.511 E0.02448
G1 X132.964 Y109.957 E0.02096
G1 X132.765 Y110.654 E0.02273
G1 X132.464 Y111.197 E0.01944
G1 X131.899 Y111.834 E0.02671
G1 X131.257 Y112.280 E0.02451
G1 X130.632 Y112.516 E0.02094
G1 X130.195 Y113.094 E0.02273
G1 X129.719 Y113.491 E0.01945
G1 X128.961 Y113.881 E0.02670
G1 X128.202 Y114.065 E0.02449
G1 X127.534 Y114.060 E0.02096
G1 X126.917 Y114.441 E0.02273
G1 X126.330 Y114.639 E0.01944
G1 X125.482 Y114.729 E0.02671
G1 X124.707 Y114.627 E0.02451
G1 X124.087 Y114.380 E0.02093
G1 X123.374 Y114.513 E0.02273
G1 X122.754 Y114.485 E0.01945
G1 X121.932 Y114.263 E0.02671
G1 X121.247 Y113.888 E0.02449
G1 X120.755 Y113.433 E0.02101
G1 X120.099 Y113.316 E0.02092
G1 X119.508 Y113.068 E0.02009
G1 X118.542 Y112.301 E0.03868
G1 X118.250 Y111.889 E0.01581
G1 X117.990 Y111.344 E0.01893
G1 X117.462 Y111.030 E0.01928
G1 X116.908 Y110.491 E0.02422
G1 X116.417 Y109.678 E0.02978
G1 X116.228 Y109.083 E0.01956
G1 X116.166 Y108.401 E0.02148
G1 X115.798 Y107.930 E0.01874
G1 X115.560 Y107.485 E0.01582
G1 X115.304 Y106.278 E0.03868
G1 X115.345 Y105.639 E0.02009
G1 X115.516 Y105.059 E0.01896
G1 F5760
G1 X115.358 Y104.425 E-0.22618
G1 F5760
G1 X115.297 Y103.924 E-0.17484
G1 F5760
G1 X115.462 Y102.901 E-0.35897
G1 E-0.04000 F2100.00000
G1 X116.568 Y108.245 F7200.000
G1 E0.80000 F2100.00000
G1 F2100
G1 X116.424 Y108.118 E0.00601
G1 X116.123 Y107.737 E0.01524
G1 X115.906 Y107.332 E0.01441
G1 X115.679 Y106.230 E0.03528
G1 X115.719 Y105.690 E0.01698
G1 X115.879 Y105.159 E0.01737
G1 X115.962 Y104.999 E0.00565
G1 X115.875 Y104.831 E0.00593
G1 X115.730 Y104.362 E0.01537
G1 X115.674 Y103.906 E0.01441
G1 X115.861 Y102.796 E0.03528
G1 X116.094 Y102.308 E0.01697
G1 X116.431 Y101.875 E0.01720
G1 X116.567 Y101.753 E0.00575
G1 X116.550 Y101.581 E0.00542
G1 X116.592 Y101.025 E0.01749
G1 X116.811 Y100.371 E0.02162
G1 X117.221 Y99.721 E0.02408
G1 X117.596 Y99.342 E0.01671
G1 X118.137 Y99.006 E0.01998
G1 X118.306 Y98.942 E0.00566
G1 X118.350 Y98.782 E0.00522
G1 X118.592 Y98.274 E0.01765
G1 X119.033 Y97.742 E0.02165
G1 X119.650 Y97.285 E0.02409
G1 X120.137 Y97.066 E0.01671
G1 X120.760 Y96.949 E0.01990
G1 X120.944 Y96.950 E0.00576
G1 X121.046 Y96.812 E0.00540
G1 X121.452 Y96.429 E0.01749
G1 X122.055 Y96.094 E0.02163
G1 X122.796 Y95.890 E0.02409
G1 X123.328 Y95.862 E0.01671
G1 X123.954 Y95.979 E0.01998
G1 X124.126 Y96.047 E0.00579
G1 X124.297 Y95.939 E0.00632
G1 X124.903 Y95.710 E0.02033
G1 X125.297 Y95.652 E0.01248
G1 X125.671 Y95.668 E0.01175
G1 X126.235 Y95.726 E0.01778
G1 X126.739 Y95.892 E0.01663
G1 X127.278 Y96.225 E0.01988
G1 X127.414 Y96.351 E0.00579
G1 X127.594 Y96.316 E0.00575
G1 X128.189 Y96.312 E0.01865
G1 X128.711 Y96.428 E0.01677
G1 X129.439 Y96.778 E0.02536
G1 X129.970 Y97.219 E0.02161
G1 X130.299 Y97.669 E0.01749
G1 X130.374 Y97.824 E0.00540
G1 X130.555 Y97.857 E0.00577
G1 X131.146 Y98.087 E0.01989
G1 X131.584 Y98.390 E0.01670
G1 X132.106 Y98.954 E0.02409
G1 X132.442 Y99.557 E0.02165
